X:243
T: Scherzlied
N: A0289
O: Europa, Mitteleuropa, Deutschland
N: Schmeltzel Quodl. 9
R: Romanze, Ballade, Lied
M: 6/2
L: 1/2
K: F
F | c2cc2F | c2cc2
c | B2cd2d | c3A2
A | A2AA2A | c2cG2
G | G2BA2G | F3F2

